Obsidian/actions/22s/kstars_ekos.svg

<svg height="22" viewBox="0 0 22 22" width="22" xmlns="http://www.w3.org/2000/svg"><path d="m8-.09570313v.09570313a7 6 0 0 0 -.9199219.05859375 7 6 0 0 0 -.1621093.01757813h-.0039063a7 6 0 0 0 -5.9140625 5.90039062v7.9999995a7 2 0 0 0 7 2 7 2 0 0 0 7-2v-7.9999995a7 6 0 0 0 -4.314453-5.53515625h-.001953a7 6 0 0 0 -.052735-.01757813 7 6 0 0 0 -.390625-.11914062 7 6 0 0 0 -.2812496-.08007812 7 6 0 0 0 -.3808594-.08203126 7 6 0 0 0 -.3027344-.05859374 7 6 0 0 0 -.3710937-.04492188 7 6 0 0 0 -.328125-.03515625 7 6 0 0 0 -.5761719-.09960938zm2.115234 1.42187503a6 5 0 0 1 3.884766 4.6992187 6 2 0 0 1 -6 2 6 2 0 0 1 -6-2 6 5 0 0 1 3.7519531-4.6328125c-1.0237 1.4859-1.5613375 3.4269125-1.7109375 5.1328125a6 2 0 0 0 3.9589844.5c.29858-2.4953 1.1928344-4.2446281 2.115234-5.6738281zm-8.115234 6.1992187a7 3 0 0 0 6 1.4628906 7 3 0 0 0 6-1.4609374v6.4609372a6 1 0 0 1 -6 1 6 1 0 0 1 -6-1z" fill="#bebebe" transform="translate(3 3)"/></svg>

<svg xmlns="http://www.w3.org/2000/svg" width="22" height="22" viewBox="0 0 22 22">
 <defs>
  <style id="current-color-scheme" type="text/css">
   .ColorScheme-Text { color:#bebebe; } .ColorScheme-Highlight { color:#4285f4; }
  </style>
 </defs>
 <path style="fill:currentColor" class="ColorScheme-Text" d="M 8 -0.095703125 L 8 0 A 7 6 0 0 0 7.0800781 0.05859375 A 7 6 0 0 0 6.9179688 0.076171875 L 6.9140625 0.076171875 A 7 6 0 0 0 1 5.9765625 L 1 13.976562 A 7 2 0 0 0 8 15.976562 A 7 2 0 0 0 15 13.976562 L 15 5.9765625 A 7 6 0 0 0 10.685547 0.44140625 L 10.683594 0.44140625 A 7 6 0 0 0 10.630859 0.42382812 A 7 6 0 0 0 10.240234 0.3046875 A 7 6 0 0 0 9.9589844 0.22460938 A 7 6 0 0 0 9.578125 0.14257812 A 7 6 0 0 0 9.2753906 0.083984375 A 7 6 0 0 0 8.9042969 0.0390625 A 7 6 0 0 0 8.5761719 0.00390625 A 7 6 0 0 0 8 -0.095703125 z M 10.115234 1.3261719 A 6 5 0 0 1 14 6.0253906 A 6 2 0 0 1 8 8.0253906 A 6 2 0 0 1 2 6.0253906 A 6 5 0 0 1 5.7519531 1.3925781 C 4.7282531 2.8784781 4.1906156 4.8194906 4.0410156 6.5253906 A 6 2 0 0 0 8 7.0253906 C 8.29858 4.5300906 9.1928344 2.7807625 10.115234 1.3515625 L 10.115234 1.3261719 z M 2 7.5253906 A 7 3 0 0 0 8 8.9882812 A 7 3 0 0 0 14 7.5273438 L 14 13.988281 A 6 1 0 0 1 8 14.988281 A 6 1 0 0 1 2 13.988281 L 2 7.5253906 z" transform="translate(3 3)"/>
</svg>
